!!!OTL: Bruder Veitston.
!!!ARE: Europa, Mitteleuropa, Deutschland
!!!SCT: A0399C
!!!YEM: Copyright 1995, estate of Helmut Schaffrath.
**kern
*M4/4
*met(c|)
*clefC4
*k[]
*d:
=1
4ryy
{4D
4D
4D
=2
4F
4D
4.F
8G
=3
2.A}
{4A
=4
4B-
4A
8GL
8FJ
4G
=5
2A
2r}
=6
{4r
4D
4D
4D
=7
4F
4D
4.F
8G
=8
2.A}
{4A
=9
4B-
4A
8GL
8FJ
4G
=10
2A
4r}
{4A
=11
4A/
4A/
4A/
4F
=12
2G
2E
=13
4r}
{4G
4G
4A/
=14
4.F
8D
2C}
=15
{4r
4A
4.c
8B-
=16
4A
4G
4.F
8G
=17
2A/
4r}
{4G
=18
4F
4F
4G
4E
=19
1D;}
==
!!!GTL: Einige historisch-politische Lieder
!!!AGN: Romanze, Ballade, Lied, religioeses Lied
!! Werlin 1646 S. 2491.
!!!ONB: ESAC (Essen Associative Code) Database: ALTDEU
!!!AMT: simple quadruple
!!!AIN: vox
!!!EED: Helmut Schaffrath
!!!EEV: 1.0
!!!URL-scan: https://rosdok.uni-rostock.de/mcrviewer/recordIdentifier/rosdok_ppn738218359/iview2/phys_0571.iview2?x=104.18348948774928&y=2810.341826842632&scale=0.7083010262257697&rotation=0&layout=singlePageLayout
!!!ENC: Anna Maria Matuszewska
!!!EEV: 2024/15/03
*-
